app/dist/common/images/proto-labs.svg

<svg height="18" width="18" xmlns="http://www.w3.org/2000/svg"><path d="m0 0h18v18h-18z" fill="#f0f3fa"/><path d="m9 15-5-3v-6l5-3 5 3v6zm-4-4 4 2.398 4-2.398v-4l-4-2.382-4 2.382z" fill="#429dca"/><path d="m11.998 6.75-5.998 3v1.5l5.998-3z" fill="#429dca"/><path d="m6 7.498v1.502l3-1.502v-1.498z" fill="#85bd41"/><path d="m11.998 10.515v-1.515l-2.998 1.515v1.485l2.998-1.486z" fill="#343842"/></svg>

<!-- by TradingView --><svg width="18" height="18" xmlns="http://www.w3.org/2000/svg"><path fill="#F0F3FA" d="M0 0h18v18H0z"/><path d="M9 15l-5-3V6l5-3 5 3v6l-5 3zm-4-4l4 2.398L13 11V7L9 4.618 5 7v4z" fill="#429DCA"/><path d="M11.998 6.75L6 9.75v1.5l5.998-3v-1.5z" fill="#429DCA"/><path d="M6 7.498V9l3-1.502V6L6 7.498z" fill="#85BD41"/><path d="M11.998 10.515V9L9 10.515V12l2.998-1.486z" fill="#343842"/></svg>
